X: 19683
T: Jenny Bowser's
R: reel
M: 4/4
K: Dmajor
|:G|FGAc d2 AF|E/E/E BA BEEG|FGAc d2 AF|D/D/D AF ADDG:|
g|fdec dBAF|E/E/E BA BEEg|fdec dBAF|D/D/D AF ADDg|
fdec dBAF|E/E/E BA BEEg|fagb afge|fdec dBGF||

